src/resources/assets/play.svg

<svg xmlns="http://www.w3.org/2000/svg" width="16" height="16"><path d="M 5.074219 3.078125 C 4.738281 2.894531 4.332031 3.136719 4.332031 3.515625 L 4.332031 12.484375 C 4.332031 12.863281 4.738281 13.105469 5.074219 12.921875 L 13.3125 8.4375 C 13.660156 8.25 13.660156 7.75 13.3125 7.5625 Z M 3.332031 3.515625 C 3.332031 2.378906 4.550781 1.65625 5.550781 2.199219 L 13.792969 6.683594 C 14.835938 7.25 14.835938 8.75 13.792969 9.316406 L 5.550781 13.800781 C 4.550781 14.34375 3.332031 13.621094 3.332031 12.484375 Z M 3.332031 3.515625" fill="#ddd"/></svg>

<svg xmlns="http://www.w3.org/2000/svg" width="16" height="16"><path d="M5.074 3.078a.5.5 0 00-.742.438v8.968a.5.5 0 00.742.438l8.239-4.485a.497.497 0 000-.874zm-1.742.438c0-1.137 1.219-1.86 2.219-1.317l8.242 4.485c1.043.566 1.043 2.066 0 2.632l-8.242 4.485c-1 .543-2.219-.18-2.219-1.317zm0 0" fill="#ddd"/></svg>
